public/avatar/hat/314.svg

<svg xmlns:xlink="http://www.w3.org/1999/xlink" height="92.9" width="100.7" xmlns="http://www.w3.org/2000/svg"><use height="20.6" transform="translate(21.65 41.55)" width="31.55" xlink:href="#a"/><defs><g id="a" fill-rule="evenodd"><path d="M6.65-6.95q1.9.5 4.45 1.9 2.85 1.55 3.2 2.6L14.55-1q0 2.7-.95 4.25l-.85 1.2v.25l.4 2.9Q12.7 9.65 8.5 11q-3.95 1.3-9.35 1.4-8.9.3-13.4-4.7-.6-.65-.8-4.1Q-17 2.3-17-1.2v-.85q-.05-1.9 4.95-4.2L-7-8.2l6.8.2 6.85 1.05" fill="#1f2e22" transform="translate(17 8.2)"/><path d="M6.5-5.85q1.7.45 4 1.65 2.5 1.35 2.75 2.1.85 2.4-.75 5l-.9 1.25.4 1.1q.3 1.3-.3 2.4-2.05 3.5-12.5 3.55-9.8.05-12.45-4.05-.85-1.25-.85-2.8l.15-1.3q-1.65-.95-1.9-2.2v-2.9q0-1.6 3.05-3.35 2.5-1.45 5.6-2.25l6.85.5 6.85 1.3" fill="#3d5c45" transform="translate(17 8.2)"/><path d="M.9 6.5q8.2-.05 10.8-2.1 1.75 3.15-4.9 4.75-8.1 1.9-15.25-1.3-2.25-1-4.15-2.4l-1.4-1.2Q-7.75 6.6.9 6.5" fill="#2d4231" transform="translate(17 8.2)"/><path d="M4.8 7.95Q-3.4 9.5-8.1 7.5l-6.1-3.25.25-1.2 3.2 2Q-7 7-4.3 7l11.4-.55q3.35-1 5.15-2.95Q10.6 6.9 4.8 7.95" fill="#1f2e22" transform="translate(17 8.2)"/><path d="m5.2-1.5-7.6.45Q-4.5-.7-3 1.9l2.05 3.35-4.25.2q-4.45-.7-6.95-2.05-4.9-2.7-3.55-6.05.45-1.25 3.95-2.85l4.3-1.8q2.35-1.1 4.65.6 1.35 1.05 6.7 2.3 5.15 1.25 5.35 1.5.5.55-.75 1.05l-3.3.35" fill="#5d8c69" transform="translate(17 8.2)"/><path d="M13.6-1.75Q11.95-.35 8.9 0l-16 .5q-5.55.65-8.75-2.55l2.8 1.1q3.35 1 6.25.6Q-2.1-1 8.9-.5l4.7-1.25" fill="#2d4231" transform="translate(17 8.2)"/><path d="m-12.05 8.45-1.6-1.95q5.3 4.5 18.15 4.45-4.7 1-10.55.15-3.7-.55-6-2.65" fill="#5d8c69" transform="translate(17 8.2)"/><path d="m-3.5-.55-.05.75-3.55.3-4.3-.2q-3.4-.65-4.45-2.35Q-11.35-.15-7-.6q2.95-.3 3.5.05" fill="#3d5c45" transform="translate(17 8.2)"/><path d="M-14.05-2.4q-.35-.35 1.55-1.55l1.95-1.1L-8-6l-1.5 1.55q-1.6 1.4-.65 1.85l3.3.95q1.55.4-.3.5-5.4.25-6.9-1.25" fill="#73ad82" transform="translate(17 8.2)"/><path d="M12.5.05q-.95 4.65-3.45 5.5-3.35 1.05-3.8.75l4.3-3.9Q12.45-.25 12.5.05" fill="#2d4231" transform="translate(17 8.2)"/><path d="M-.4 6.65-3.6 8.2l.6-3.3-2.05-2.3 3.25-.5L-.5-.65 1.1 2l3.65.55-2.5 2.35.6 3.3L-.4 6.65" fill="#420000" transform="translate(17 8.2)"/><path d="m1.75 4.6.5 2.6L-.4 6-3 7.2l.5-2.6-2.1-1.8 2.9-.4L-.4.05.9 2.4l2.95.4-2.1 1.8" fill="red" transform="translate(17 8.2)"/><path d="M2.25 7.2-.4 6-3 7.2l2.7-3.05L3.85 2.8l-2.1 1.95.5 2.45" fill="#ad0000" transform="translate(17 8.2)"/><path d="M-.4.05-.5 3.8l-4.05-.95 2.8-.5L-.4.05" fill="#ff6363" transform="translate(17 8.2)"/><path d="M-4.8 11.25q-2.5.05-5-1.2l-2-1.3q11 2.45 7 2.5" fill="#73ad82" transform="translate(17 8.2)"/></g></defs></svg>

<?xml version="1.0" encoding="UTF-8" standalone="no"?>
<svg xmlns:xlink="http://www.w3.org/1999/xlink" height="92.9px" width="100.7px" xmlns="http://www.w3.org/2000/svg">
  <g transform="matrix(1.0, 0.0, 0.0, 1.0, 38.65, 49.75)">
    <use height="20.6" transform="matrix(1.0, 0.0, 0.0, 1.0, -17.0, -8.2)" width="31.55" xlink:href="#shape0"/>
  </g>
  <defs>
    <g id="shape0" transform="matrix(1.0, 0.0, 0.0, 1.0, 17.0, 8.2)">
      <path d="M6.65 -6.95 Q8.55 -6.45 11.1 -5.05 13.95 -3.5 14.3 -2.45 L14.55 -1.0 Q14.55 1.7 13.6 3.25 L12.75 4.45 12.75 4.7 13.15 7.6 Q12.7 9.65 8.5 11.0 4.55 12.3 -0.85 12.4 -9.75 12.7 -14.25 7.7 -14.85 7.05 -15.05 3.6 -17.0 2.3 -17.0 -1.2 L-17.0 -2.05 Q-17.05 -3.95 -12.05 -6.25 L-7.0 -8.2 -0.2 -8.0 6.65 -6.95" fill="#1f2e22" fill-rule="evenodd" stroke="none"/>
      <path d="M6.5 -5.85 Q8.2 -5.4 10.5 -4.2 13.0 -2.85 13.25 -2.1 14.1 0.3 12.5 2.9 L11.6 4.15 12.0 5.25 Q12.3 6.55 11.7 7.65 9.65 11.15 -0.8 11.2 -10.6 11.25 -13.25 7.15 -14.1 5.9 -14.1 4.35 L-13.95 3.05 Q-15.6 2.1 -15.85 0.85 L-15.85 -2.05 Q-15.85 -3.65 -12.8 -5.4 -10.3 -6.85 -7.2 -7.65 L-0.35 -7.15 6.5 -5.85" fill="#3d5c45" fill-rule="evenodd" stroke="none"/>
      <path d="M0.9 6.5 Q9.1 6.45 11.7 4.4 13.45 7.55 6.8 9.15 -1.3 11.05 -8.45 7.85 -10.7 6.85 -12.6 5.45 L-14.0 4.25 Q-7.75 6.6 0.9 6.5" fill="#2d4231" fill-rule="evenodd" stroke="none"/>
      <path d="M4.8 7.95 Q-3.4 9.5 -8.1 7.5 L-14.2 4.25 -13.95 3.05 -10.75 5.05 Q-7.0 7.0 -4.3 7.0 L7.1 6.45 Q10.45 5.45 12.25 3.5 10.6 6.9 4.8 7.95" fill="#1f2e22" fill-rule="evenodd" stroke="none"/>
      <path d="M5.2 -1.5 L-2.4 -1.05 Q-4.5 -0.7 -3.0 1.9 L-0.95 5.25 -5.2 5.45 Q-9.65 4.75 -12.15 3.4 -17.05 0.7 -15.7 -2.65 -15.25 -3.9 -11.75 -5.5 L-7.45 -7.3 Q-5.1 -8.4 -2.8 -6.7 -1.45 -5.65 3.9 -4.4 9.05 -3.15 9.25 -2.9 9.75 -2.35 8.5 -1.85 L5.2 -1.5" fill="#5d8c69" fill-rule="evenodd" stroke="none"/>
      <path d="M13.6 -1.75 Q11.95 -0.35 8.9 0.0 L-7.1 0.5 Q-12.65 1.15 -15.85 -2.05 L-13.05 -0.95 Q-9.7 0.05 -6.8 -0.35 -2.1 -1.0 8.9 -0.5 L13.6 -1.75" fill="#2d4231" fill-rule="evenodd" stroke="none"/>
      <path d="M-12.05 8.45 L-13.65 6.5 Q-8.35 11.0 4.5 10.95 -0.2 11.95 -6.05 11.1 -9.75 10.55 -12.05 8.45" fill="#5d8c69" fill-rule="evenodd" stroke="none"/>
      <path d="M-3.5 -0.55 L-3.55 0.2 -7.1 0.5 -11.4 0.3 Q-14.8 -0.35 -15.85 -2.05 -11.35 -0.15 -7.0 -0.6 -4.05 -0.9 -3.5 -0.55" fill="#3d5c45" fill-rule="evenodd" stroke="none"/>
      <path d="M-14.05 -2.4 Q-14.4 -2.75 -12.5 -3.95 L-10.55 -5.05 -8.0 -6.0 -9.5 -4.45 Q-11.1 -3.05 -10.15 -2.6 L-6.85 -1.65 Q-5.3 -1.25 -7.15 -1.15 -12.55 -0.9 -14.05 -2.4" fill="#73ad82" fill-rule="evenodd" stroke="none"/>
      <path d="M12.5 0.05 Q11.55 4.7 9.05 5.55 5.7 6.6 5.25 6.3 L9.55 2.4 Q12.45 -0.25 12.5 0.05" fill="#2d4231" fill-rule="evenodd" stroke="none"/>
      <path d="M-0.4 6.65 L-3.6 8.2 -3.0 4.9 -5.05 2.6 -1.8 2.1 -0.5 -0.65 1.1 2.0 4.75 2.55 2.25 4.9 2.85 8.2 -0.4 6.65" fill="#420000" fill-rule="evenodd" stroke="none"/>
      <path d="M1.75 4.6 L2.25 7.2 -0.4 6.0 -3.0 7.2 -2.5 4.6 -4.6 2.8 -1.7 2.4 -0.4 0.05 0.9 2.4 3.85 2.8 1.75 4.6" fill="#ff0000" fill-rule="evenodd" stroke="none"/>
      <path d="M2.25 7.2 L-0.4 6.0 -3.0 7.2 -0.3 4.15 3.85 2.8 1.75 4.75 2.25 7.2" fill="#ad0000" fill-rule="evenodd" stroke="none"/>
      <path d="M-0.4 0.05 L-0.5 3.8 -4.55 2.85 -1.75 2.35 -0.4 0.05" fill="#ff6363" fill-rule="evenodd" stroke="none"/>
      <path d="M-4.8 11.25 Q-7.3 11.3 -9.8 10.05 L-11.8 8.75 Q-0.8 11.2 -4.8 11.25" fill="#73ad82" fill-rule="evenodd" stroke="none"/>
    </g>
  </defs>
</svg>
